X: 7401
T: Red River Valley
B: Henry Ford's "Good Morning"
Z: 2011 John Chambers <jc:trillian.mit.edu>
R: march, reel
M: 2/4
L: 1/8
K: F
V: 1 clef=treble
|: (CF) | "F"A-A A-A | "C7"A2 GA | "F"G F3- | F2 CF |
w: 1.~_ Al-le-mande* left on the cor-ners_ And you
w: 2.~First* cou-ple to the right and you bal-ance_ And you
w: 3.~And you lead* to the next and you bal-ance_ And you
"F"A-A FA | "F"c-c BA | "C7"[G4-E4-C4-B,4-] | [GECB,]z (cB) |
w: grand* right and left* half a-round_ And_
w: cir-cle to the left and to the right_ And you
w: cir-cle to the left and to the right_ And you
"F"A-A AG | "F7"[F2_E2C2] ([G_EC][AEC]) | "Bb"cB- B-B  | D2 "Bdim7"(ED) |
w: when you meet your own you_ pro-me-nade back home And_
w: swing* with the op-po-site la-dy___ Then you
w: swing* with the op-po-site la-dy___  And you
"F"C2 EF | "G7"G2 "C7"AG | "F"[F4-C4-A,4-] | [FCA,]z |]
w: swing with your Red Riv-er Girl._
w: swing with your Red Riv-er Girl._
w: swing with your Red Riv-er Girl._
%
V: 2 clef=bass middle=d
|: z2 | F[af] c[af] | e[c'b] c[c'b] | F[af] c[af] | F[af] c[af] |
F[af] c[af] | F[af] c[af] | cB GE | Cz [b2g2e2c2] |
F[af] c[af] | fa gf | B[bd] F[bd] | B[bd] =B[_af] |
c[af] c[af] | d[=bf] c[_be] | fd cA | Fz :|


%%sep 5 1 500

